img/discount/R.svg

<svg width="82" height="84" viewBox="0 0 82 84" fill="none" xmlns="http://www.w3.org/2000/svg">
<path opacity="0.2" d="M22.7241 47.1657L22.7548 78.9734L35.369 80.6524V83.9691L0.879108 84V80.6833L10.7538 78.9837L10.6925 4.96495L0 3.34778V0.03105L35.9824 0.000148582C41.8193 -0.0101518 46.7055 0.515169 50.6207 1.55551C54.5358 2.59585 57.674 4.08941 60.0354 6.02589C62.3967 7.96237 64.0834 10.3109 65.0749 13.0714C66.0665 15.8319 66.5674 18.9323 66.5776 22.4035C66.5776 25.6173 66.1176 28.4911 65.1874 31.0147C64.2571 33.5383 63.01 35.7632 61.4358 37.6894C59.8616 39.6155 58.042 41.2121 55.9669 42.479C53.8918 43.7563 51.7451 44.7245 49.5064 45.3941L72.0874 78.9425L81.1035 80.6215V83.9382L61.1496 83.9588L37.6895 47.1554L22.7241 47.1657ZM54.2087 23.2791C54.2087 19.9417 53.81 17.14 53.0229 14.8945C52.2358 12.6388 50.9989 10.8259 49.3224 9.44563C47.646 8.06537 45.4891 7.08683 42.862 6.51001C40.2246 5.93319 37.0455 5.63447 33.3246 5.64477L22.6934 5.65507L22.7241 41.5417L33.7232 41.5314C37.5362 41.5314 40.7459 41.1812 43.3526 40.4911C45.9593 39.8009 48.0753 38.7194 49.6904 37.2258C51.3055 35.7426 52.4607 33.8576 53.166 31.5606C53.8611 29.2533 54.2087 26.4928 54.2087 23.2791Z" fill="#FFD32E"/>
</svg>

<svg width="82" height="84" fill="none" xmlns="http://www.w3.org/2000/svg"><path opacity=".2" d="M22.724 47.166l.03 31.807 12.615 1.68v3.316L.879 84v-3.317l9.875-1.7-.061-74.018L0 3.348V.03L35.982 0c5.838-.01 10.724.514 14.639 1.555 3.915 1.04 7.053 2.533 9.414 4.47 2.362 1.936 4.048 4.285 5.04 7.045s1.492 5.861 1.503 9.333c0 3.213-.46 6.087-1.39 8.61-.93 2.524-2.178 4.75-3.752 6.675a21.484 21.484 0 01-5.47 4.79 27.07 27.07 0 01-6.46 2.915l22.581 33.548 9.016 1.68v3.316l-19.953.02-23.46-36.803-14.966.01zM54.21 23.279c0-3.337-.399-6.139-1.186-8.384-.787-2.256-2.024-4.07-3.7-5.45-1.677-1.38-3.834-2.358-6.461-2.935-2.637-.577-5.817-.876-9.537-.865l-10.632.01.031 35.887 11-.01c3.812 0 7.022-.35 9.629-1.04 2.606-.691 4.722-1.773 6.337-3.266 1.616-1.483 2.77-3.368 3.476-5.665.695-2.308 1.043-5.068 1.043-8.282z" fill="#FFD32E"/></svg>
